school/img/country/TG.svg

<svg width="13" height="12" viewBox="0 0 13 12" fill="none" xmlns="http://www.w3.org/2000/svg">
<rect width="13" height="12" rx="2" fill="white"/>
<mask id="mask0" mask-type="alpha" maskUnits="userSpaceOnUse" x="0" y="0" width="13" height="12">
<rect width="13" height="12" rx="2" fill="white"/>
</mask>
<g mask="url(#mask0)">
<rect width="13" height="12" fill="#FFD44D"/>
<path fill-rule="evenodd" clip-rule="evenodd" d="M5.57143 0H13V2.4H5.57143V0ZM5.57143 4.8H13V7.2H5.57143V4.8ZM13 9.6H0V12H13V9.6Z" fill="#159A74"/>
<rect width="5.57143" height="7.2" fill="#ED1F45"/>
<path fill-rule="evenodd" clip-rule="evenodd" d="M2.78573 4.536L1.69413 5.54164L2.09689 3.88924L1.01948 2.85836L2.36001 2.84276L2.78573 1.2L3.21146 2.84276L4.55198 2.85836L3.47457 3.88924L3.87733 5.54164L2.78573 4.536Z" fill="white"/>
</g>
</svg>

<svg width="13" height="12" fill="none" xmlns="http://www.w3.org/2000/svg"><rect width="13" height="12" rx="2" fill="#fff"/><mask id="a" maskUnits="userSpaceOnUse" x="0" y="0" width="13" height="12"><rect width="13" height="12" rx="2" fill="#fff"/></mask><g mask="url(#a)"><path fill="#FFD44D" d="M0 0h13v12H0z"/><path fill-rule="evenodd" clip-rule="evenodd" d="M5.571 0H13v2.4H5.571V0zm0 4.8H13v2.4H5.571V4.8zM13 9.6H0V12h13V9.6z" fill="#159A74"/><path fill="#ED1F45" d="M0 0h5.571v7.2H0z"/><path fill-rule="evenodd" clip-rule="evenodd" d="M2.786 4.536L1.694 5.542l.403-1.653-1.078-1.03 1.341-.016.426-1.643.425 1.643 1.341.015L3.475 3.89l.402 1.653-1.091-1.006z" fill="#fff"/></g></svg>
